components/assets/USDC.svg

<svg width="55" height="55" viewBox="0 0 55 55" fill="none" xmlns="http://www.w3.org/2000/svg">
<ellipse cx="27.0528" cy="27.0758" rx="27.0528" ry="27.0758" fill="#2775CA"/>
<path d="M34.1116 30.8298C34.1116 27.054 31.9175 25.7594 27.5294 25.2201C24.3951 24.7884 23.7682 23.9255 23.7682 22.4149C23.7682 20.9044 24.8131 19.9337 26.9026 19.9337C28.7832 19.9337 29.828 20.581 30.3504 22.1992C30.4549 22.5229 30.7684 22.7386 31.0818 22.7386H32.7533C33.1713 22.7386 33.4847 22.4149 33.4847 21.9835V21.8756C33.0667 19.5021 31.1861 17.6681 28.7832 17.4524V14.8632C28.7832 14.4316 28.4697 14.108 27.9474 14H26.3803C25.9623 14 25.6488 14.3237 25.5443 14.8632V17.3445C22.4099 17.7761 20.425 19.9337 20.425 22.6308C20.425 26.191 22.5145 27.5933 26.9026 28.1329C29.828 28.6722 30.7684 29.3195 30.7684 31.0458C30.7684 32.772 29.3055 33.9586 27.3206 33.9586C24.604 33.9586 23.6637 32.7717 23.3502 31.1535C23.2459 30.7221 22.9325 30.5062 22.619 30.5062H20.8428C20.425 30.5062 20.1116 30.8298 20.1116 31.2614V31.3694C20.5293 34.0663 22.2011 36.0082 25.6488 36.5478V39.137C25.6488 39.5684 25.9623 39.892 26.4846 40H28.0518C28.4697 40 28.7832 39.6763 28.8877 39.137V36.5478C32.0221 36.0082 34.1116 33.7427 34.1116 30.8298Z" fill="white"/>
<path d="M21.7428 41.5665C13.5317 38.6533 9.32086 29.6013 12.3739 21.5895C13.9529 17.2195 17.4268 13.8901 21.7428 12.3294C22.164 12.1214 22.3744 11.8093 22.3744 11.2889V9.83229C22.3744 9.41602 22.164 9.10388 21.7428 9C21.6374 9 21.427 9 21.3216 9.10388C11.3211 12.2253 5.84695 22.7342 9.00505 32.6185C10.8999 38.4451 15.4266 42.9192 21.3216 44.792C21.7428 45 22.164 44.792 22.2691 44.3757C22.3744 44.2718 22.3744 44.1677 22.3744 43.9597V42.5029C22.3744 42.1907 22.0586 41.7747 21.7428 41.5665ZM32.9015 9.10388C32.4803 8.89587 32.0592 9.10388 31.9541 9.52015C31.8487 9.62428 31.8487 9.72816 31.8487 9.93642V11.393C31.8487 11.8093 32.1645 12.2253 32.4803 12.4335C40.6914 15.3467 44.9023 24.3987 41.8493 32.4105C40.2702 36.7805 36.7963 40.1099 32.4803 41.6706C32.0592 41.8786 31.8487 42.1907 31.8487 42.7111V44.1677C31.8487 44.584 32.0592 44.8961 32.4803 45C32.5857 45 32.7962 45 32.9015 44.8961C42.9021 41.7747 48.3762 31.2658 45.2181 21.3815C43.3232 15.4508 38.6912 10.9767 32.9015 9.10388Z" fill="white"/>
</svg>

<svg width="55" height="55" fill="none" xmlns="http://www.w3.org/2000/svg"><ellipse cx="27.053" cy="27.076" rx="27.053" ry="27.076" fill="#2775CA"/><path d="M34.112 30.83c0-3.776-2.195-5.07-6.583-5.61-3.134-.432-3.76-1.294-3.76-2.805 0-1.51 1.044-2.481 3.134-2.481 1.88 0 2.925.647 3.447 2.265.105.324.418.54.732.54h1.671c.418 0 .732-.324.732-.756v-.107c-.418-2.374-2.299-4.208-4.702-4.424v-2.589c0-.431-.313-.755-.836-.863H26.38c-.418 0-.731.324-.836.863v2.482c-3.134.431-5.119 2.589-5.119 5.286 0 3.56 2.09 4.962 6.478 5.502 2.925.54 3.865 1.187 3.865 2.913 0 1.726-1.463 2.913-3.447 2.913-2.717 0-3.657-1.187-3.97-2.806-.105-.43-.418-.647-.732-.647h-1.776c-.418 0-.731.324-.731.755v.108c.417 2.697 2.09 4.64 5.537 5.179v2.589c0 .431.313.755.836.863h1.567c.418 0 .731-.324.836-.863v-2.59c3.134-.539 5.224-2.804 5.224-5.717z" fill="#fff"/><path d="M21.743 41.566c-8.211-2.913-12.422-11.965-9.37-19.977 1.58-4.37 5.054-7.699 9.37-9.26.421-.208.631-.52.631-1.04V9.832c0-.416-.21-.728-.631-.832-.106 0-.316 0-.421.104-10 3.121-15.475 13.63-12.317 23.514 1.895 5.827 6.422 10.301 12.317 12.174.42.208.842 0 .947-.416.105-.104.105-.208.105-.416v-1.457c0-.312-.315-.728-.631-.937zM32.902 9.104c-.422-.208-.843 0-.948.416-.105.104-.105.208-.105.416v1.457c0 .416.315.832.631 1.04 8.211 2.914 12.422 11.966 9.37 19.977-1.58 4.37-5.054 7.7-9.37 9.26-.42.209-.631.52-.631 1.041v1.457c0 .416.21.728.631.832.106 0 .316 0 .422-.104 10-3.121 15.474-13.63 12.316-23.515-1.895-5.93-6.527-10.404-12.317-12.277z" fill="#fff"/></svg>
